X:1
T:Miss Admiral Gordon's Strathspey
T:Miss Admiral Gordon's Strathspey
T:or Of a' the airts the wind can blaw
T:William Marshall
C:William Marshall
%%score { 1 ( 2 3 ) }
L:1/8
M:4/4
K:A
V:1 treble 
V:2 bass 
V:3 bass 
V:1
"^Slow when not danced" E | A/A/A .A<.A A>E A<f | (e<c)(TB>A){G} F2 (F>E) | A/A/A .A<.A A>E A<f | %4
 e>f a<c e2 (e>f) | e>f a<c (e<c)(TB>A) | TB>c (d/c/)(B/A/) F2 (FE) | A/A/A (.[CA].A) [CA]>E A<f | %8
 e<cTB>c [CA]2 [CA] || E | (C>E) (A>E) (TF>E) (A>E) | c>e (d/c/)(B/A/){A} F2 (FE) | %12
 (C>E) (A>E) (TF>E) (A>E) | c>d (e/f/)(g/a/){f} e2 (e>g) | (a>g) (Tf>e) (Tf>e)(d>c) | %15
 TB>c (d/c/)(B/A/){G} F2 (FE) | A/A/A (.[CA].A) [CA]>E A<f | e<cTB>c [CA]2 [CA] |] %18
V:2
 z | A,,2 A,2 A,,2 C,D, | A,,2 B,,C, D,2 D,,2 | A,,2 A,2 A,,2 A,2 | A,,2 A,2 A,,A,CD | %5
 CD C2 A,2 DC | G,A,B,C D2 D,,2 | A,,2 A,2 A,,2 C,D, | E,2 E,,2 A,,2 A, || z | A,,2 C,2 D,2 C,2 | %11
 A,,2 B,,C, D,2 D,,2 | A,,2 C,2 D,2 C,2 | A,,2 A,2 G,2 E,E | FEDC DCB,A, | G,A, B,C D2 D,2 | %16
 A,,2 A,2 A,,2 C,D, | E,2 E,,2 A,,2 A, |] %18
V:3
 x | x8 | x8 | x8 | x8 | x8 | x8 | x8 | x7 || x | A,,,8 | x8 | A,,,8 | x8 | x8 | x8 | x8 | x7 |] %18

